X:1
T:Mein Schöpfer, 66.66.77.77.86
T:Mein Schöpfer, 66.66.77.77.86
T:Franz Heinrich Christoph Meyer, 1740
T:Public Domain Courtesy of the Cyber Hymnal™
C:Franz Heinrich Christoph Meyer, 1740
Z:Public Domain
Z:Courtesy of the Cyber Hymnal™
%%score ( 1 2 ) ( 3 4 )
L:1/8
Q:1/4=115
M:4/4
K:D
V:1 treble 
V:2 treble 
V:3 bass 
V:4 bass 
V:1
 [A,D]2 | [A,D]2 [A,E]2 [DF]2 [DF]2 | [CE]4 z2 [EA]2 | [DG]2 [DF]2 [DE]2 [CE]2 | D6 [A,D]2 | %5
 [A,D]2 [A,E]2 [DF]2 [DF]2 | [CE]4 z2 [EA]2 | [DG]2 [DF]2 [DE]2 [CE]2 | D6 [DA]2 | %9
 [DB]2 [EB]2 [Ec]2 [Gc]2 | [Fd]2 [DA]2 z2 [DF]2 | [DB]2 [DA]2 G2 [DF]2 | [DE]2 [CE]2 z2 [DA]2 | %13
 [DB]2 [DB]2 [Ec]2 [Gc]2 | [Fd]2 [FA]2 z2 [DF]2 | [DB]2 [CA]2 [DG]2 [DF]2 | [DE]2 [CE]2 z2 [A,c]2 | %17
 [A,D]2 [B,D]2 [CE]2 [^DF]2 | [EG]2 [CG]2 [DF]2 [DB]2 | [DA]2 [EG]2 [DF]2 [CE]2 | [A,D]6 |] %21
V:2
 x2 | x8 | x8 | x8 | D6 x2 | x8 | x8 | x8 | D6 x2 | x8 | x8 | x4 (B,C) x2 | x8 | x8 | x8 | x8 | %16
 x8 | x8 | x8 | x8 | x6 |] %21
V:3
 [D,F,]2 | [D,F,]2 [C,E,]2 [D,A,]2 [F,,A,]2 | [A,,A,]4 z2 [A,,C]2 | %3
 [B,,B,]2 [D,A,]2 [G,,B,]2 [A,,A,]2 | [D,F,]6 [D,F,]2 | [D,F,]2 [C,E,]2 [D,A,]2 [F,,A,]2 | %6
 [A,,A,]4 z2 [A,,C]2 | [B,,B,]2 [D,A,]2 [G,,B,]2 [A,,A,]2 | [D,F,]6 [D,F,]2 | %9
 G,2 [E,G,]2 A,2 [A,,A,]2 | [D,A,]2 [D,F,]2 z2 [D,A,]2 | [G,,G,]2 [D,F,]2 [E,G,]2 [D,A,]2 | %12
 [A,,A,]2 [A,,A,]2 z2 [F,,A,]2 | [G,,G,]2 [B,,F,]2 [A,,A,]2 [E,G,]2 | [D,A,]2 [D,D]2 z2 [D,A,]2 | %15
 [G,,G,]2 [A,,E,]2 [B,,G,]2 [D,A,]2 | [A,,A,]2 [A,,A,]2 z2 [C,E,]2 | %17
 [D,F,]2 [B,,F,]2 [A,,A,]2 [F,,A,]2 | [E,,B,]2 [A,,A,]2 [D,A,]2 [G,,G,]2 | %19
 [F,,A,]2 [G,,B,]2 [A,,A,]2 (A,G,) | [D,F,]6 |] %21
V:4
 x2 | x8 | x8 | x8 | x8 | x8 | x8 | x8 | x8 | G,2 A,2 x4 | x8 | x8 | x8 | x8 | x8 | x8 | x8 | x8 | %18
 x8 | x6 A,,2 | x6 |] %21

